svg/star_check_outline.svg

<svg xmlns="http://www.w3.org/2000/svg" viewBox="0 0 24 24"><path d="m5.8 21 1.6-7L2 9.2l7.2-.6L12 2l2.8 6.6 7.2.6-3.2 2.8H18c-.7 0-1.4.1-2.1.4l2.2-1.9-4.4-.4-1.7-4-1.7 4-4.4.4 3.3 2.9-1 4.3 3.8-2.3.5.3c-.2.5-.4 1.1-.4 1.6zm12 .2-2.8-3 1.2-1.2 1.6 1.6 3.6-3.6 1.2 1.4z"/></svg>

<?xml version="1.0" encoding="UTF-8"?><!DOCTYPE svg PUBLIC "-//W3C//DTD SVG 1.1//EN" "http://www.w3.org/Graphics/SVG/1.1/DTD/svg11.dtd"><svg xmlns="http://www.w3.org/2000/svg" xmlns:xlink="http://www.w3.org/1999/xlink" version="1.1" id="mdi-star-check-outline" width="24" height="24" viewBox="0 0 24 24"><path d="M5.8 21L7.4 14L2 9.2L9.2 8.6L12 2L14.8 8.6L22 9.2L18.8 12H18C17.3 12 16.6 12.1 15.9 12.4L18.1 10.5L13.7 10.1L12 6.1L10.3 10.1L5.9 10.5L9.2 13.4L8.2 17.7L12 15.4L12.5 15.7C12.3 16.2 12.1 16.8 12.1 17.3L5.8 21M17.8 21.2L15 18.2L16.2 17L17.8 18.6L21.4 15L22.6 16.4L17.8 21.2" /></svg>
